X: 63
T:The Young Widow
M:6/8
L:1/8
K:G
G|"G" B2 B BAB|"C" cdc "G" BAG|"G" BAG BAG|"G" Bcd "D" d3|
"D" B2 B BAB|"C" cdc "G" BAG|"G" Bcd "C" efg|"G" Bc"D"A "G"G3:|
|:"D" AFD AFD|"G" dcB "D" AFD|"D" BFD AFD|"G" dcB "D" A3:|
"D" f2 f fef|"G" gag "D" fed|"D" fed fed|"D" fga "A" a3|
"D" f2 f fef|"G" gag "D" fed|"D" def "Em" efg|"A" ABA "D" d3|]
